apps/nuxt3-ssr/assets/minified-icons/Filter.svg

<svg fill="none" xmlns="http://www.w3.org/2000/svg" viewBox="0 0 24 24"><path d="M3 18.95v-1.5h6.175v1.5H3Zm0-12.4v-1.5h10.325v1.5H3ZM10.675 21v-5.625h1.5v2.075H21v1.5h-8.825V21h-1.5Zm-3-6.2v-2.05H3v-1.5h4.675v-2.1h1.5v5.65h-1.5Zm3-2.05v-1.5H21v1.5H10.675Zm4.15-4.125V3h1.5v2.05H21v1.5h-4.675v2.075h-1.5Z" fill="currentColor"/></svg>

<svg viewBox="0 0 24 24" fill="none" xmlns="http://www.w3.org/2000/svg"><path d="M3 18.95V17.45H9.175V18.95H3ZM3 6.55V5.05H13.325V6.55H3ZM10.675 21V15.375H12.175V17.45H21V18.95H12.175V21H10.675ZM7.675 14.8V12.75H3V11.25H7.675V9.15H9.175V14.8H7.675ZM10.675 12.75V11.25H21V12.75H10.675ZM14.825 8.625V3H16.325V5.05H21V6.55H16.325V8.625H14.825Z" fill="currentColor"/></svg>
